public/assets/images/About/ключ.svg

<svg width="80" height="80" viewBox="0 0 80 80" fill="none" xmlns="http://www.w3.org/2000/svg">
<g clip-path="url(#clip0)" filter="url(#filter0_f)">
<path d="M65.8954 14.1046C61.9592 10.1678 56.7188 8 51.1386 8C45.5591 8 40.318 10.1678 36.3819 14.1046C31.0577 19.4288 29.0462 27.0475 30.9824 34.2609L8.6115 56.8151C8.22013 57.2065 8 57.737 8 58.2907V69.913C8 71.0659 8.93412 72 10.087 72H21.7093C22.2629 72 22.7935 71.7799 23.1847 71.3885L26.1359 68.4374C26.5273 68.046 26.7751 67.5155 26.7751 66.9619V63.3713H30.5632C31.1169 63.3713 31.6475 63.1094 32.0387 62.718L34.9905 59.7663C35.3819 59.3749 35.6855 58.8444 35.6855 58.2907V54.4609H39.418C39.9716 54.4609 40.5023 54.2546 40.8935 53.8635L45.7393 49.0177C52.9552 50.9552 60.5721 48.9424 65.8955 43.6183C69.8329 39.6821 72 34.4409 72 28.8614C72 23.2813 69.8329 18.0408 65.8954 14.1046ZM59.8204 31.9939C58.1927 33.6209 56.0548 34.4347 53.9168 34.4347C51.7788 34.4347 49.6415 33.6209 48.0139 31.9945L48.0131 31.9937C44.759 28.7384 44.759 23.4428 48.0139 20.1886C49.5885 18.6133 51.6851 17.7464 53.9168 17.7464C56.1484 17.7464 58.2449 18.6131 59.8196 20.1886C63.0745 23.4429 63.0745 28.7385 59.8204 31.9939Z" fill="#EFBE44"/>
<path d="M65.8953 14.1046L59.8153 20.1846C59.8167 20.186 59.8181 20.1874 59.8198 20.1887C63.0746 23.4429 63.0746 28.7384 59.8205 31.9939C58.1926 33.6209 56.0548 34.4347 53.9168 34.4347C51.7788 34.4347 49.6415 33.6209 48.0139 31.9945L48.0131 31.9937C48.0119 31.9925 48.0108 31.9912 48.0096 31.99L8.61115 71.3887C8.98877 71.7665 9.51052 72 10.0869 72H21.7091C22.2629 72 22.7935 71.7799 23.1848 71.3886L26.1359 68.4375C26.5273 68.0461 26.7751 67.5156 26.775 66.9619V63.3712H30.5631C31.1168 63.3712 31.6474 63.1094 32.0386 62.718L34.9904 59.7662C35.3816 59.375 35.6853 58.8444 35.6853 58.2907V54.4609H39.4178C39.9715 54.4609 40.502 54.2545 40.8933 53.8632L45.739 49.0175C52.9551 50.955 60.572 48.9421 65.8953 43.618C69.8328 39.6821 71.9999 34.4407 71.9999 28.8615C71.9999 23.2812 69.8328 18.0407 65.8953 14.1046Z" fill="#E4A738"/>
</g>
<g clip-path="url(#clip1)">
<path d="M65.8954 14.1046C61.9592 10.1678 56.7188 8 51.1386 8C45.5591 8 40.318 10.1678 36.3819 14.1046C31.0577 19.4288 29.0462 27.0475 30.9824 34.2609L8.6115 56.8151C8.22013 57.2065 8 57.737 8 58.2907V69.913C8 71.0659 8.93412 72 10.087 72H21.7093C22.2629 72 22.7935 71.7799 23.1847 71.3885L26.1359 68.4374C26.5273 68.046 26.7751 67.5155 26.7751 66.9619V63.3713H30.5632C31.1169 63.3713 31.6475 63.1094 32.0387 62.718L34.9905 59.7663C35.3819 59.3749 35.6855 58.8444 35.6855 58.2907V54.4609H39.418C39.9716 54.4609 40.5023 54.2546 40.8935 53.8635L45.7393 49.0177C52.9552 50.9552 60.5721 48.9424 65.8955 43.6183C69.8329 39.6821 72 34.4409 72 28.8614C72 23.2813 69.8329 18.0408 65.8954 14.1046ZM59.8204 31.9939C58.1927 33.6209 56.0548 34.4347 53.9168 34.4347C51.7788 34.4347 49.6415 33.6209 48.0139 31.9945L48.0131 31.9937C44.759 28.7384 44.759 23.4428 48.0139 20.1886C49.5885 18.6133 51.6851 17.7464 53.9168 17.7464C56.1484 17.7464 58.2449 18.6131 59.8196 20.1886C63.0745 23.4429 63.0745 28.7385 59.8204 31.9939Z" fill="#EFBE44"/>
<path d="M65.8953 14.1046L59.8153 20.1846C59.8167 20.186 59.8181 20.1874 59.8198 20.1887C63.0746 23.4429 63.0746 28.7384 59.8205 31.9939C58.1926 33.6209 56.0548 34.4347 53.9168 34.4347C51.7788 34.4347 49.6415 33.6209 48.0139 31.9945L48.0131 31.9937C48.0119 31.9925 48.0108 31.9912 48.0096 31.99L8.61115 71.3887C8.98877 71.7665 9.51052 72 10.0869 72H21.7091C22.2629 72 22.7935 71.7799 23.1848 71.3886L26.1359 68.4375C26.5273 68.0461 26.7751 67.5156 26.775 66.9619V63.3712H30.5631C31.1168 63.3712 31.6474 63.1094 32.0386 62.718L34.9904 59.7662C35.3816 59.375 35.6853 58.8444 35.6853 58.2907V54.4609H39.4178C39.9715 54.4609 40.502 54.2545 40.8933 53.8632L45.739 49.0175C52.9551 50.955 60.572 48.9421 65.8953 43.618C69.8328 39.6821 71.9999 34.4407 71.9999 28.8615C71.9999 23.2812 69.8328 18.0407 65.8953 14.1046Z" fill="#E4A738"/>
</g>
<defs>
<filter id="filter0_f" x="0" y="0" width="80" height="80" filterUnits="userSpaceOnUse" color-interpolation-filters="sRGB">
<feFlood flood-opacity="0" result="BackgroundImageFix"/>
<feBlend mode="normal" in="SourceGraphic" in2="BackgroundImageFix" result="shape"/>
<feGaussianBlur stdDeviation="4" result="effect1_foregroundBlur"/>
</filter>
<clipPath id="clip0">
<rect width="64" height="64" fill="white" transform="translate(8 8)"/>
</clipPath>
<clipPath id="clip1">
<rect width="64" height="64" fill="white" transform="translate(8 8)"/>
</clipPath>
</defs>
</svg>

<svg width="80" height="80" fill="none" xmlns="http://www.w3.org/2000/svg"><g clip-path="url(#a)" filter="url(#b)"><path d="M65.895 14.105C61.96 10.168 56.72 8 51.14 8s-10.821 2.168-14.757 6.105c-5.324 5.324-7.336 12.942-5.4 20.156L8.612 56.815A2.087 2.087 0 0 0 8 58.291v11.622C8 71.066 8.934 72 10.087 72h11.622c.554 0 1.085-.22 1.476-.612l2.95-2.95c.392-.392.64-.922.64-1.476v-3.59h3.788c.554 0 1.085-.263 1.476-.654l2.951-2.952c.392-.391.695-.922.695-1.475v-3.83h3.733c.554 0 1.084-.206 1.476-.597l4.845-4.846c7.216 1.937 14.833-.076 20.157-5.4C69.832 39.682 72 34.441 72 28.861s-2.167-10.82-6.105-14.756ZM59.82 31.994a8.325 8.325 0 0 1-5.903 2.44 8.325 8.325 0 0 1-5.903-2.44c-3.255-3.256-3.255-8.551 0-11.805a8.29 8.29 0 0 1 5.903-2.443c2.231 0 4.328.867 5.903 2.443 3.255 3.254 3.255 8.55 0 11.805Z" fill="#EFBE44"/><path d="m65.895 14.105-6.08 6.08a.045.045 0 0 0 .005.004c3.255 3.254 3.255 8.55 0 11.805a8.326 8.326 0 0 1-5.903 2.44 8.325 8.325 0 0 1-5.903-2.44l-.004-.004L8.61 71.389c.378.377.9.611 1.476.611h11.622c.554 0 1.085-.22 1.476-.611l2.95-2.951c.392-.392.64-.922.64-1.476v-3.59h3.788c.554 0 1.084-.263 1.476-.654l2.951-2.952c.392-.391.695-.922.695-1.475v-3.83h3.733c.553 0 1.084-.206 1.475-.598l4.846-4.846c7.216 1.938 14.833-.075 20.156-5.399C69.833 39.682 72 34.441 72 28.861s-2.167-10.82-6.105-14.756Z" fill="#E4A738"/></g><g clip-path="url(#c)"><path d="M65.895 14.105C61.96 10.168 56.72 8 51.14 8s-10.821 2.168-14.757 6.105c-5.324 5.324-7.336 12.942-5.4 20.156L8.612 56.815A2.087 2.087 0 0 0 8 58.291v11.622C8 71.066 8.934 72 10.087 72h11.622c.554 0 1.085-.22 1.476-.612l2.95-2.95c.392-.392.64-.922.64-1.476v-3.59h3.788c.554 0 1.085-.263 1.476-.654l2.951-2.952c.392-.391.695-.922.695-1.475v-3.83h3.733c.554 0 1.084-.206 1.476-.597l4.845-4.846c7.216 1.937 14.833-.076 20.157-5.4C69.832 39.682 72 34.441 72 28.861s-2.167-10.82-6.105-14.756ZM59.82 31.994a8.325 8.325 0 0 1-5.903 2.44 8.325 8.325 0 0 1-5.903-2.44c-3.255-3.256-3.255-8.551 0-11.805a8.29 8.29 0 0 1 5.903-2.443c2.231 0 4.328.867 5.903 2.443 3.255 3.254 3.255 8.55 0 11.805Z" fill="#EFBE44"/><path d="m65.895 14.105-6.08 6.08a.045.045 0 0 0 .005.004c3.255 3.254 3.255 8.55 0 11.805a8.326 8.326 0 0 1-5.903 2.44 8.325 8.325 0 0 1-5.903-2.44l-.004-.004L8.61 71.389c.378.377.9.611 1.476.611h11.622c.554 0 1.085-.22 1.476-.611l2.95-2.951c.392-.392.64-.922.64-1.476v-3.59h3.788c.554 0 1.084-.263 1.476-.654l2.951-2.952c.392-.391.695-.922.695-1.475v-3.83h3.733c.553 0 1.084-.206 1.475-.598l4.846-4.846c7.216 1.938 14.833-.075 20.156-5.399C69.833 39.682 72 34.441 72 28.861s-2.167-10.82-6.105-14.756Z" fill="#E4A738"/></g><defs><clipPath id="a"><path fill="#fff" transform="translate(8 8)" d="M0 0h64v64H0z"/></clipPath><clipPath id="c"><path fill="#fff" transform="translate(8 8)" d="M0 0h64v64H0z"/></clipPath><filter id="b" x="0" y="0" width="80" height="80" filterUnits="userSpaceOnUse" color-interpolation-filters="sRGB"><feFlood flood-opacity="0" result="BackgroundImageFix"/><feBlend in="SourceGraphic" in2="BackgroundImageFix" result="shape"/><feGaussianBlur stdDeviation="4" result="effect1_foregroundBlur"/></filter></defs></svg>
